_site/images/Background-fill.svg

<svg fill="none" height="651" viewBox="0 0 1440 651" width="1440" xmlns="http://www.w3.org/2000/svg" xmlns:xlink="http://www.w3.org/1999/xlink"><clipPath id="a"><path d="m-1 271h285v377h-285z"/></clipPath><clipPath id="b"><path d="m1232 0h208v279h-208z"/></clipPath><path d="m0 0h1440v651h-1440z" fill="#f9fcff"/><g clip-path="url(#a)" fill="#00a0b6" opacity=".07"><path d="m-275.266 647.72c-.226 0-.452-.046-.663-.152-.513-.256-.844-.785-.844-1.36v-150.311c0-.483.226-.937.618-1.209l275.184938-203.921c.542816-.393 1.281646-.393 1.824493.015l275.381569 212.793c.377.287.588.726.588 1.194 0 .469-.211.907-.588 1.194l-91.06 70.176c-.543.408-1.282.423-1.825 0l-183.4163687-139.474-274.2806313 210.752c-.271.197-.588.303-.92.303zm1.508-151.052v146.487l272.772832-209.589c.542846-.408 1.281707-.423 1.824523 0l183.401645 139.474 88.602-68.271-272.9234443-210.888z"/><path d="m.130676 861.087c-.331726 0-.648376-.106-.9198-.317l-275.395876-213.368c-.377-.287-.588-.725-.588-1.194 0-.468.211-.907.588-1.194l89.838-69.299c.543-.408 1.282-.423 1.825-.015l184.5471465 138.522 274.3558535-210.662c.452-.347 1.071-.408 1.583-.151.513.257.845.786.845 1.36v150.311c0 .484-.227.937-.619 1.209l-274.62686 203.74c-.1206.393-.39203.71-.768981.907-.211121.106-.437286.151-.663483.151zm-272.923676-214.879 272.6975105 211.282 273.8884895-203.196v-146.487l-272.832978 209.514c-.542847.408-1.281708.423-1.824524.015l-184.547498-138.537z"/></g><g clip-path="url(#b)"><g fill="#00a0b6" opacity=".07"><path d="m1242.03 111.874c-.17 0-.34-.034-.49-.112-.38-.189-.63-.579-.63-1.002v-110.76090027c0-.35639973.17-.69052173.46-.89099073l202.85-150.265109c.4-.289.94-.289 1.34.011l203 156.80288c.27.2116.43.53457.43.87983s-.16.66825-.43.87985l-67.13 51.71064c-.4.3007-.94.3118-1.34 0l-135.2-102.7753-202.19 155.2991c-.2.145-.43.223-.67.223zm1.11-111.306907v107.942907l201.07-154.4413c.4-.3007.94-.3118 1.34 0l135.19 102.7753 65.32-50.30729-201.19-155.39871z"/><path d="m1445.03 269.099c-.24 0-.48-.078-.68-.234l-203-157.226c-.28-.211-.44-.534-.44-.88 0-.345.16-.668.44-.879l66.22-51.0651c.4-.3007.95-.3118 1.35-.0111l136.03 102.0732 202.24-155.23167c.33-.25616.79-.30071 1.17-.11138.37.18934.62.57914.62 1.00236v110.76069c0 .356-.17.691-.46.891l-202.43 150.131c-.09.29-.29.524-.57.668-.16.078-.32.112-.49.112zm-201.18-158.34 201.01 155.689 201.9-149.73v-107.94308l-201.12 154.38608c-.4.3-.94.311-1.34.011l-136.04-102.0851z"/></g></g></svg>

<svg width="1440" height="651" viewBox="0 0 1440 651" fill="none" xmlns="http://www.w3.org/2000/svg">
<rect width="1440" height="651" fill="#F9FCFF"/>
<g opacity="0.07" clip-path="url(#clip0)">
<path d="M-275.266 647.72C-275.492 647.72 -275.718 647.674 -275.929 647.568C-276.442 647.312 -276.773 646.783 -276.773 646.208V495.897C-276.773 495.414 -276.547 494.96 -276.155 494.688L-0.970062 290.767C-0.427246 290.374 0.311584 290.374 0.854431 290.782L276.236 503.575C276.613 503.862 276.824 504.301 276.824 504.769C276.824 505.238 276.613 505.676 276.236 505.963L185.176 576.139C184.633 576.547 183.894 576.562 183.351 576.139L-0.0653687 436.665L-274.346 647.417C-274.617 647.614 -274.934 647.72 -275.266 647.72ZM-273.758 496.668V643.155L-0.985168 433.566C-0.442322 433.158 0.296539 433.143 0.839355 433.566L184.241 573.04L272.843 504.769L-0.0804443 293.881L-273.758 496.668Z" fill="#00A0B6"/>
<path d="M0.130676 861.087C-0.20105 861.087 -0.5177 860.981 -0.789124 860.77L-276.185 647.402C-276.562 647.115 -276.773 646.677 -276.773 646.208C-276.773 645.74 -276.562 645.301 -276.185 645.014L-186.347 575.715C-185.804 575.307 -185.065 575.292 -184.522 575.7L0.0251465 714.222L274.381 503.56C274.833 503.213 275.452 503.152 275.964 503.409C276.477 503.666 276.809 504.195 276.809 504.769V655.08C276.809 655.564 276.582 656.017 276.19 656.289L1.56314 860.029C1.44254 860.422 1.17111 860.739 0.794159 860.936C0.583038 861.042 0.356873 861.087 0.130676 861.087ZM-272.793 646.208L-0.0954895 857.49L273.793 654.294V507.807L0.960022 717.321C0.417175 717.729 -0.321686 717.744 -0.864502 717.336L-185.412 578.799L-272.793 646.208Z" fill="#00A0B6"/>
</g>
<g clip-path="url(#clip1)">
<g opacity="0.07">
<path d="M1242.03 111.874C1241.86 111.874 1241.69 111.84 1241.54 111.762C1241.16 111.573 1240.91 111.183 1240.91 110.76V-0.000900269C1240.91 -0.3573 1241.08 -0.691422 1241.37 -0.891891L1444.22 -151.157C1444.62 -151.446 1445.16 -151.446 1445.56 -151.146L1648.56 5.65688C1648.83 5.86848 1648.99 6.19145 1648.99 6.53671C1648.99 6.88197 1648.83 7.20496 1648.56 7.41656L1581.43 59.1272C1581.03 59.4279 1580.49 59.439 1580.09 59.1272L1444.89 -43.6481L1242.7 111.651C1242.5 111.796 1242.27 111.874 1242.03 111.874ZM1243.14 0.567093V108.51L1444.21 -45.9313C1444.61 -46.232 1445.15 -46.2431 1445.55 -45.9313L1580.74 56.844L1646.06 6.53671L1444.87 -148.862L1243.14 0.567093Z" fill="#00A0B6"/>
<path d="M1445.03 269.099C1444.79 269.099 1444.55 269.021 1444.35 268.865L1241.35 111.639C1241.07 111.428 1240.91 111.105 1240.91 110.759C1240.91 110.414 1241.07 110.091 1241.35 109.88L1307.57 58.8149C1307.97 58.5142 1308.52 58.5031 1308.92 58.8038L1444.95 160.877L1647.19 5.64533C1647.52 5.38917 1647.98 5.34462 1648.36 5.53395C1648.73 5.72329 1648.98 6.11309 1648.98 6.53631V117.297C1648.98 117.653 1648.81 117.988 1648.52 118.188L1446.09 268.319C1446 268.609 1445.8 268.843 1445.52 268.987C1445.36 269.065 1445.2 269.099 1445.03 269.099ZM1243.85 110.759L1444.86 266.448L1646.76 116.718V8.77492L1445.64 163.161C1445.24 163.461 1444.7 163.472 1444.3 163.172L1308.26 61.0869L1243.85 110.759Z" fill="#00A0B6"/>
</g>
</g>
<defs>
<clipPath id="clip0">
<rect width="285" height="377" fill="white" transform="translate(-1 271)"/>
</clipPath>
<clipPath id="clip1">
<rect width="208" height="279" fill="white" transform="translate(1232)"/>
</clipPath>
</defs>
</svg>
